src/16/places/folder-image.svg

<svg xmlns="http://www.w3.org/2000/svg" width="16" height="16"><defs><style id="current-color-scheme" type="text/css"></style></defs><path d="M2 2C1 2 1 3 1 3v10c0 1 1 1 1 1h12s1 0 1-1V3c0-1-1-1-1-1zm7 8l2-2.44L13 10v2H3V9l2.5-2.5z" fill="currentColor" color="#727272"/></svg>

<svg xmlns="http://www.w3.org/2000/svg" width="16" height="16" version="1.1" viewBox="0 0 16 16">
 <defs>
  <style id="current-color-scheme" type="text/css">
   .ColorScheme-Text { color:#727272; } .ColorScheme-Highlight { color:#5294e2; }
  </style>
 </defs>
 <path style="fill:currentColor" class="ColorScheme-Text" d="M 2,2 C 1,2 1,3 1,3 V 13 C 1,14 2,14 2,14 H 14 C 14,14 15,14 15,13 V 3 C 15,2 14,2 14,2 Z M 9,10 11,7.56 13,10 V 12 H 3 V 9 L 5.5,6.5 Z"/>
</svg>
